icons/op-relation-precedes-24.svg

<svg width="24" height="24" viewBox="0 0 24 24" fill="none" xmlns="http://www.w3.org/2000/svg">
<path d="M16.4037 16C17.3195 14.3955 18.8024 12.8877 20 12C18.8024 11.1123 17.3195 9.59703 16.4037 8V11.0178L14.5474 11.0343L14.5439 12.6908H16.4037V16Z" fill="black"/>
<path fill-rule="evenodd" clip-rule="evenodd" d="M4 8.38006H14.2531V15.6051H4V8.38006ZM4.61925 9.02967H13.6308V10.7862H4.61925V9.02967Z" fill="black"/>
</svg>

<svg xmlns="http://www.w3.org/2000/svg" width="24" height="24" viewBox="0 0 24 24"><path d="M16.404 16c.916-1.604 2.398-3.112 3.596-4-1.198-.888-2.68-2.403-3.596-4v3.018l-1.857.016-.003 1.657h1.86V16ZM4 8.38h10.253v7.225H4Zm.619.65v1.756h9.012V9.03Z"/></svg>
